src/lib/packages/icons/src/assets/filled/registered-square.svg

<svg width="24" height="24" viewBox="0 0 24 24" fill="none" xmlns="http://www.w3.org/2000/svg">
<path d="M14.25 10C14.25 10.689 13.689 11.25 13 11.25H9.75V8.75H13C13.689 8.75 14.25 9.311 14.25 10ZM21 6.375V17.625C21 19.875 19.875 21 17.625 21H6.375C4.125 21 3 19.875 3 17.625V6.375C3 4.125 4.125 3 6.375 3H17.625C19.875 3 21 4.125 21 6.375ZM14.0979 12.5181C15.0689 12.0931 15.75 11.126 15.75 10C15.75 8.483 14.517 7.25 13 7.25H9C8.586 7.25 8.25 7.586 8.25 8V16C8.25 16.414 8.586 16.75 9 16.75C9.414 16.75 9.75 16.414 9.75 16V12.75H12.5359L14.3291 16.335C14.4611 16.598 14.725 16.75 15.001 16.75C15.113 16.75 15.228 16.7249 15.335 16.6709C15.706 16.4849 15.8559 16.035 15.6709 15.665L14.0979 12.5181Z" fill="currentColor"/>
</svg>

<svg xmlns="http://www.w3.org/2000/svg" width="24" height="24" fill="none"><path fill="currentColor" d="M14.25 10c0 .689-.561 1.25-1.25 1.25H9.75v-2.5H13c.689 0 1.25.561 1.25 1.25ZM21 6.375v11.25C21 19.875 19.875 21 17.625 21H6.375C4.125 21 3 19.875 3 17.625V6.375C3 4.125 4.125 3 6.375 3h11.25C19.875 3 21 4.125 21 6.375Zm-6.902 6.143A2.751 2.751 0 0 0 15.75 10 2.752 2.752 0 0 0 13 7.25H9a.75.75 0 0 0-.75.75v8a.75.75 0 0 0 1.5 0v-3.25h2.786l1.793 3.585a.75.75 0 0 0 1.342-.67l-1.573-3.147Z"/></svg>
